X:393
T: IM SOMMER GEHT MEIN TRAUER AN
N: B0466
O: Europa, Mitteleuropa, Deutschland, Dillenburg; Heringen
R: Liebes - Lied, Leid, Klage
M: 4/4
L: 1/16
K: F
C2 | F6G2A6F2 | A4B2d2c6
cB | A4d4c6B2 | B4A4z6
c2 | A4c4A4c2f2 | d3cB2d2c4z2
cB | A4c4c4B2A2 | G2B2A4z6
c2 | A4c4A4c2f2 | d3cB2d2c4z2
cB | A4c4c4B2A2 | G2B2A4z6

